X: 1
M: 4/4
Q: 1/4=140
L: 1/8
K: F
z8 |G,8- |G,4 B,4 |A,4 G,4- |G,4 ^F,4 |G,8- |G,8 |z4 D,4 |
F,4 G,4 |A,6 B,2 |C2 A,2 B,2 G,2 |A,2 F,2 G,2 E,2 |F,2 G,2 F,4 |E,8 |
D,8 | z4 B,4 |A,4 F,4 |G,6 F,2|E,4 F,4 |G,8 |z4 A,2 B,2 |C2 A,2 B,4 |
A,4 D,4- |D,2 E,2 F,2 G,2 |A,2 B,2 C4- |C2 B,1A,1 G,2 A,2 |B,4 A,4- |A,2 G,2 F,2 E,2 |
D,4 G,4- |G,2 F,2 B,4- |B,4 A,2 G,2 |A,8- |G,8 |
